!!!!SEGMENT: pl-stab--10a--001-010_rodowski-aleksander--litanie-lauretane-de-b-v-m-agnus-dei.krn
!!!cenid: 18xx:3440
!!!COM: Rodowski, Aleksander
!!!COM-rismID: pe30009627
!!!CDT: <1790->1810
!!!CNT: Polish
!!!OPR: Litanie Lauretane de B.V.M
!!!OTL: Agnus Dei
!!!OMV: 010
!!!PDT:
!!!AGN:
!!!SMS-siglum: PL-STAb
!!!SMS-shelfmark: 10a
!!!SMS-shelfwork: 001-010 M
!!!SMS-variant:
!!!SMS-altvar:
!!!NIFC-rismSourceID: 301050674
!!!NIFC-islandoraID: pl-stab:2273
!!!URL-pdf-islandora: https://repozytorium.nifc.pl/islandora/object/pl-stab%3A2273/datastream/PDF/view
!!!URL-scan: https://polish.musicsources.pl/pl/lokalizacje/galeria/rekopisy/4397 @EN{Scan on Polish Music Herritage in Open Access Website} @PL{Skany w portalu Dziedzictwo Muzyki Polskiej w otwartym dostępie}
!!!ONB-nifc: UWAGA: części Litanii: 1. Kyrie, 2. Pater de caelis, 3. Sancta Maria, 4. Mater Christi, 5. Mater amabilis, 6. Virgo prudentissima, 7. Rosa mistica, 8. Salus infirmorum, 9. Regina angelorum, 10. Agnus Dei
!!!AIN: 1 bass 2 cor 1 organ 1 soprn 1 tenor 2 violn
!!!key: G
**kern	**fba	**kern	**kern	**dynam	**kern	**text	**kern	**kern	**kern	**kern
*	*	*group3	*group3	*	*group2	*	*group2	*group2	*group1	*group1
*part8	*part8	*part7	*part6	*part6	*part5	*part5	*part4	*part3	*part2	*part1
*staff8	*	*staff7	*staff6	*	*staff5	*staff5	*staff4	*staff3	*staff2	*staff1
*I"Organo	*	*I"Violino Secundo	*I"Violino Primo	*	*I"Baſso	*	*I"Tenore	*I"Canto	*I"Cornu Secundo in G.	*I"Cornu Primo in G.
*I'org	*	*I'vl 2	*I'vl 1	*	*I'B	*	*I'T	*I'S	*I'cor 2 in G	*I'cor 1 in G
*Iorgan	*	*Ivioln	*Ivioln	*	*Ibass	*	*Itenor	*Isoprn	*Icor	*Icor
*ICklav	*	*ICstr	*ICstr	*	*ICvox	*	*ICvox	*ICvox	*ICbras	*ICbras
*IGcont	*	*	*	*	*	*IGcoro	*	*IGcoro	*	*
*clefF4	*	*clefG2	*clefG2	*	*clefF4	*	*clefC4	*clefC1	*clefG2	*clefG2
*	*	*	*	*	*	*	*	*	*ITrd3c5	*ITrd3c5
*k[f#]	*	*k[f#]	*k[f#]	*	*k[f#]	*	*k[f#]	*k[f#]	*k[f#]	*k[f#]
*G:	*	*G:	*G:	*	*G:	*	*G:	*G:	*G:	*G:
*M2/4	*	*M2/4	*M2/4	*	*M2/4	*	*M2/4	*M2/4	*M2/4	*M2/4
*all\left	*	*all\left	*all\left	*	*all\left	*	*	*	*	*
=1	=1	=1	=1	=1	=1	=1	=1	=1	=1	=1
!	!	!	!	!	!	!	!	!	!	!LO:TX:a:i:t=Agnus Tacet
!LO:TX:a:i:t=adagio	!	!LO:TX:a:i:t=Adagio	!LO:TX:a:i:t=adagio Solo	!	!LO:TX:a:i:t=Adagio Solo	!	!LO:TX:a:i:t=Agnus Tacet	!LO:TX:a:i:t=Agnus Tacet	!LO:TX:a:i:t=Agnus Tacet	!LO:TX:a:i:t=Adagio
4G\	3	16g/LL	2r	.	2r	.	2ryy	2ryy	2ryy	2ryy
.	.	16d/JJ	.	.	.	.	.	.	.	.
.	.	8.b/L	.	.	.	.	.	.	.	.
4D\	6:7 3:5	.	.	.	.	.	.	.	.	.
.	.	16a/L	.	.	.	.	.	.	.	.
.	.	16f#/	.	.	.	.	.	.	.	.
.	.	16d/JJ	.	.	.	.	.	.	.	.
=2	=2	=2	=2	=2	=2	=2	=2	=2	=2	=2
!LO:TX:t=P:problem=mixed beam	!	!	!	!	!	!	!	!	!	!
8DD/L	5 3	16.d/LL	2r	.	2r	.	2ryy	2ryy	2ryy	2ryy
.	.	32e/JJk	.	.	.	.	.	.	.	.
8D\J	7 5	32f#/LLL	.	.	.	.	.	.	.	.
.	.	32g/	.	.	.	.	.	.	.	.
.	.	32a/	.	.	.	.	.	.	.	.
.	.	32b/JJJ	.	.	.	.	.	.	.	.
!	!	!LO:N:vis=32	!	!	!	!	!	!	!	!
8GG/	3	16g/LL	.	.	.	.	.	.	.	.
!	!	!LO:N:vis=32	!	!	!	!	!	!	!	!
.	.	16a/	.	.	.	.	.	.	.	.
!	!	!LO:N:vis=32	!	!	!	!	!	!	!	!
8r	.	16b/	.	.	.	.	.	.	.	.
!	!	!LO:N:vis=32	!	!	!	!	!	!	!	!
.	.	16cc/JJ	.	.	.	.	.	.	.	.
=3	=3	=3	=3	=3	=3	=3	=3	=3	=3	=3
4BB/	6 3	16dd\LL	2r	.	2r	.	2ryy	2ryy	2ryy	2ryy
.	.	16b\JJ	.	.	.	.	.	.	.	.
.	.	8.dd\L	.	.	.	.	.	.	.	.
4C/	6 3	.	.	.	.	.	.	.	.	.
.	.	16ee\L	.	.	.	.	.	.	.	.
.	.	16cc\	.	.	.	.	.	.	.	.
.	.	16a\JJ	.	.	.	.	.	.	.	.
=4	=4	=4	=4	=4	=4	=4	=4	=4	=4	=4
!LO:TX:t=P:problem=mixed beam	!	!	!	!	!	!	!	!	!	!
8D\L	6 4	8.g/L	4r	.	2r	.	2ryy	2ryy	2ryy	2ryy
8DD/	.	.	.	.	.	.	.	.	.	.
.	.	16b/Jk	.	.	.	.	.	.	.	.
8D\J	5 3	8a/	16r	.	.	.	.	.	.	.
.	.	.	16dd\LL	.	.	.	.	.	.	.
8r	.	8r	16ee\	.	.	.	.	.	.	.
.	.	.	16ff#\JJ	.	.	.	.	.	.	.
=5	=5	=5	=5	=5	=5	=5	=5	=5	=5	=5
8G\	.	16r	16.gg\LL	.	2r	.	2ryy	2ryy	2ryy	2ryy
.	.	16d/LL 16b	.	.	.	.	.	.	.	.
!	!	!	!LO:N:vis=16	!	!	!	!	!	!	!
.	.	.	32dd\JJk	.	.	.	.	.	.	.
8r	.	16d/ 16b	8.bb\L	.	.	.	.	.	.	.
.	.	16d/JJ 16b	.	.	.	.	.	.	.	.
8D\	.	16r	.	.	.	.	.	.	.	.
.	.	16d/LL 16cc	16aa\L	.	.	.	.	.	.	.
8r	.	16d/ 16cc	16ff#\	.	.	.	.	.	.	.
.	.	16d/JJ 16cc	16dd\JJ	.	.	.	.	.	.	.
=6	=6	=6	=6	=6	=6	=6	=6	=6	=6	=6
!	!	!LO:LB:g=original	!	!	!	!	!	!	!	!
8F#\	5 3	16r	16.dd\LL	.	2r	.	2ryy	2ryy	2ryy	2ryy
.	.	16d/LL 16a	.	.	.	.	.	.	.	.
.	.	.	32ee\JJk	.	.	.	.	.	.	.
8r	.	16d/ 16a	32ff#\LLL	.	.	.	.	.	.	.
.	.	.	32gg\	.	.	.	.	.	.	.
.	.	16d/JJ 16a	32aa\	.	.	.	.	.	.	.
.	.	.	32bb\JJJ	.	.	.	.	.	.	.
8G\	3	16r	16gg\LL	.	.	.	.	.	.	.
.	.	16d/LL 16b	16aa\	.	.	.	.	.	.	.
8r	.	16d/ 16b	16bb\	.	.	.	.	.	.	.
.	.	16d/JJ 16b	16ccc\JJ	.	.	.	.	.	.	.
=7	=7	=7	=7	=7	=7	=7	=7	=7	=7	=7
!LO:LB:g=original	!	!	!	!	!	!	!	!	!	!
8B\	6 3	16r	16ddd\LL	.	2r	.	2ryy	2ryy	2ryy	2ryy
.	.	16d/LL	16bb\JJ	.	.	.	.	.	.	.
8r	.	16g/	8.ddd\L	.	.	.	.	.	.	.
.	.	16d/JJ	.	.	.	.	.	.	.	.
8c\	6 3	16r	.	.	.	.	.	.	.	.
.	.	16e/LL	16eee\L	.	.	.	.	.	.	.
8r	.	16a/	16ccc\	.	.	.	.	.	.	.
.	.	16e/JJ	16aa\JJ	.	.	.	.	.	.	.
=8	=8	=8	=8	=8	=8	=8	=8	=8	=8	=8
8d\	6 4	16r	8.gg\L	.	2r	.	2ryy	2ryy	2ryy	2ryy
.	.	16B/LL 16g	.	.	.	.	.	.	.	.
8r	.	16B/ 16g	.	.	.	.	.	.	.	.
.	.	16B/JJ 16g	16bb\Jk	.	.	.	.	.	.	.
8D\	5 3	16f#/LL	8aa\	.	.	.	.	.	.	.
.	.	16d/	.	.	.	.	.	.	.	.
8r	.	16c#X/	8r	.	.	.	.	.	.	.
.	.	16d/JJ	.	.	.	.	.	.	.	.
=9	=9	=9	=9	=9	=9	=9	=9	=9	=9	=9
!	!	!	!LO:LB:g=original	!	!	!	!	!	!	!
8FF#/	5 3	16r	16.aa\LL	.	2r	.	2ryy	2ryy	2ryy	2ryy
.	.	16d/LL 16cc	.	.	.	.	.	.	.	.
.	.	.	32bb\K	.	.	.	.	.	.	.
8r	.	16d/ 16cc	16ccc\	.	.	.	.	.	.	.
.	.	16d/JJ 16cc	16ddd\JJ	.	.	.	.	.	.	.
8F#\	.	16r	8eee\L	.	.	.	.	.	.	.
.	.	16a/LL 16cc	.	.	.	.	.	.	.	.
8r	.	16a/ 16cc	8eee\J	.	.	.	.	.	.	.
.	.	16a/JJ 16cc	.	.	.	.	.	.	.	.
=10	=10	=10	=10	=10	=10	=10	=10	=10	=10	=10
8G\	5 3	16r	16eee\LL	.	2r	.	2ryy	2ryy	2ryy	2ryy
.	.	16d/LL 16b	16ddd\J	.	.	.	.	.	.	.
8r	.	16d/ 16b	8.ddd\J	.	.	.	.	.	.	.
.	.	16d/JJ 16b	.	.	.	.	.	.	.	.
8C/	6 3	16r	.	.	.	.	.	.	.	.
.	.	16cc/LL	16eee\LL	.	.	.	.	.	.	.
8r	.	16a/	16ccc\	.	.	.	.	.	.	.
.	.	16e/JJ	16aa\JJ	.	.	.	.	.	.	.
=11	=11	=11	=11	=11	=11	=11	=11	=11	=11	=11
8D\	6 4	16g/LL	8gg\L	.	2r	.	2ryy	2ryy	2ryy	2ryy
.	.	16d/	.	.	.	.	.	.	.	.
8r	.	16B/	8gg\J	.	.	.	.	.	.	.
.	.	16d/JJ	.	.	.	.	.	.	.	.
8DD/	7 5	16c/LL	16ff#\LL	.	.	.	.	.	.	.
.	.	16d/	16aa\	.	.	.	.	.	.	.
8r	.	16f#/	16ddd\	.	.	.	.	.	.	.
.	.	16a/JJ	16ccc\JJ	.	.	.	.	.	.	.
=12	=12	=12	=12	=12	=12	=12	=12	=12	=12	=12
!	!	!LO:LB:g=original	!	!	!	!	!	!	!	!
8D\	7 5	16a/LL	8.ccc\L	.	2r	.	2ryy	2ryy	2ryy	2ryy
.	.	16g/	.	.	.	.	.	.	.	.
8r	.	16a/	.	.	.	.	.	.	.	.
.	.	16b/JJ	16ddd\Jk	.	.	.	.	.	.	.
16G\LL	3	16g/LL	8bb\	.	.	.	.	.	.	.
16B\	3	16d/	.	.	.	.	.	.	.	.
16A\	3	16c/	8r	.	.	.	.	.	.	.
16G\JJ	3	16B/JJ	.	.	.	.	.	.	.	.
=13	=13	=13	=13	=13	=13	=13	=13	=13	=13	=13
8F#\	6 5_ 3_	16r	16.aa\LL	.	2r	.	2ryy	2ryy	2ryy	2ryy
.	.	16d/LL 16cc	.	.	.	.	.	.	.	.
.	.	.	32bb\K	.	.	.	.	.	.	.
8r	.	16d/ 16cc	16ccc\	.	.	.	.	.	.	.
.	.	16d/JJ 16cc	16ddd\JJ	.	.	.	.	.	.	.
8F#\	x X X	16r	8eee\L	.	.	.	.	.	.	.
.	.	16a/LL 16cc	.	.	.	.	.	.	.	.
8r	.	16a/ 16cc	8eee\J	.	.	.	.	.	.	.
.	.	16a/JJ 16cc	.	.	.	.	.	.	.	.
=14	=14	=14	=14	=14	=14	=14	=14	=14	=14	=14
8G\	3	16r	16eee\LL	.	2r	.	2ryy	2ryy	2ryy	2ryy
.	.	16d/LL 16b	16ddd\JJ	.	.	.	.	.	.	.
8r	.	16d/ 16b	8.ddd\L	.	.	.	.	.	.	.
.	.	16d/JJ 16b	.	.	.	.	.	.	.	.
4r	.	8d/ 8b	.	.	.	.	.	.	.	.
.	.	.	16eee\L	.	.	.	.	.	.	.
.	.	8r	16fff#\	.	.	.	.	.	.	.
.	.	.	16ggg\JJ	.	.	.	.	.	.	.
=15	=15	=15	=15	=15	=15	=15	=15	=15	=15	=15
!LO:PB:g=original	!	!	!	!	!	!	!	!	!	!
8G\L	3	16B/LL	8.gg\L	.	2r	.	2ryy	2ryy	2ryy	2ryy
.	.	16d/	.	.	.	.	.	.	.	.
8G\	.	16B/	.	.	.	.	.	.	.	.
.	.	16d/JJ	16aa\Jk	.	.	.	.	.	.	.
8D\	7 3	16c/LL	4aaT\	.	.	.	.	.	.	.
.	.	16d/	.	.	.	.	.	.	.	.
8D\J	.	16c/	.	.	.	.	.	.	.	.
.	.	16d/JJ	.	.	.	.	.	.	.	.
=16	=16	=16	=16	=16	=16	=16	=16	=16	=16	=16
!LO:TX:t=P:problem=mixed beam	!	!	!	!	!	!	!	!	!	!
!	!	!	!LO:LB:g=original	!	!	!	!	!	!	!
8G\L	7	8d/L	8gg\L	.	2r	.	2ryy	2ryy	2ryy	2ryy
8D\	.	16b/L	16dd\L	.	.	.	.	.	.	.
.	.	16b/JJ	16dd\JJ	.	.	.	.	.	.	.
8GG/J	.	8g/	8b\	.	.	.	.	.	.	.
8r	.	8r	8r	.	.	.	.	.	.	.
=17	=17	=17	=17	=17	=17	=17	=17	=17	=17	=17
!	!	!	!	!	!LO:TX:a:i:t=Solo	!	!	!	!	!
!	!	!	!	!LO:DY:b:t=p.	!	!	!	!	!	!
8G\	3	2r	16d/LL	p	16G\LL	A-	2ryy	2ryy	2ryy	2ryy
.	.	.	16B/J	.	16D\J	.	.	.	.	.
8r	.	.	8.d/J	.	8.B\J	.	.	.	.	.
8D\	7_ 5_	.	.	.	.	.	.	.	.	.
.	.	.	16e/LL	.	16c\LL	-gnus	.	.	.	.
8r	.	.	16c/	.	16A\	.	.	.	.	.
.	.	.	16A/JJ	.	16F#\JJ	.	.	.	.	.
=18	=18	=18	=18	=18	=18	=18	=18	=18	=18	=18
8DD/L	X X	2r	8c/L	.	8A\L	De-	2ryy	2ryy	2ryy	2ryy
.	.	.	.	.	16qqB/	.	.	.	.	.
!	!	!	!	!	!LO:N:vis=16	!	!	!	!	!
8D/J	.	.	32c/LL	.	32A\LL	.	.	.	.	.
!	!	!	!	!	!LO:N:vis=16	!	!	!	!	!
.	.	.	32B/	.	32G\	.	.	.	.	.
!	!	!	!	!	!LO:N:vis=16	!	!	!	!	!
.	.	.	32c/	.	32A\	.	.	.	.	.
!	!	!	!	!	!LO:N:vis=16	!	!	!	!	!
.	.	.	32d/JJJ	.	32B\JJJ	.	.	.	.	.
4GG/	3	.	16B/LL	.	8G\	-i	.	.	.	.
.	.	.	16B/	.	.	.	.	.	.	.
.	.	.	16d/	.	16r	.	.	.	.	.
.	.	.	16g/JJ	.	16B\	qui	.	.	.	.
=19	=19	=19	=19	=19	=19	=19	=19	=19	=19	=19
4BB/	6 3	2r	16.b\LL	.	16d\LL	tol-	2ryy	2ryy	2ryy	2ryy
.	.	.	.	.	16B\JJ	.	.	.	.	.
.	.	.	32g\JK	.	.	.	.	.	.	.
.	.	.	8.b\J	.	8.d\	-lis	.	.	.	.
4C/	6 3	.	.	.	.	.	.	.	.	.
.	.	.	16cc\LL	.	16e\	pec-	.	.	.	.
.	.	.	16a\	.	16c\	-ca-	.	.	.	.
.	.	.	16e\JJ	.	16A\	-ta	.	.	.	.
=20	=20	=20	=20	=20	=20	=20	=20	=20	=20	=20
!	!	!	!	!	!LO:LB:g=original	!	!	!	!	!
4D\	6 4	2r	16g/LL	.	8.G\L	mu-	2ryy	2ryy	2ryy	2ryy
.	.	.	16d/	.	.	.	.	.	.	.
.	.	.	16B/	.	.	.	.	.	.	.
.	.	.	16G/JJ	.	32A\LL	.	.	.	.	.
.	.	.	.	.	32B\JJJ	.	.	.	.	.
.	.	.	.	.	8qqB/	.	.	.	.	.
16D/LL	5 3	.	8d/	.	8A\	-di	.	.	.	.
16AA/	.	.	.	.	.	.	.	.	.	.
16FF#/	.	.	8r	.	8r	.	.	.	.	.
16DD/JJ	.	.	.	.	.	.	.	.	.	.
=21	=21	=21	=21	=21	=21	=21	=21	=21	=21	=21
8D\	7 5	16A/LL	2r	.	8.c\	par-	2ryy	2ryy	2ryy	2ryy
.	.	16d/	.	.	.	.	.	.	.	.
8r	.	16c/	.	.	.	.	.	.	.	.
.	.	16d/JJ	.	.	16B\	-ce	.	.	.	.
8DD/	5 3	16c/LL	.	.	8A\	no-	.	.	.	.
.	.	16d/	.	.	.	.	.	.	.	.
8r	.	16c/	.	.	8A\	-bis	.	.	.	.
.	.	16d/JJ	.	.	.	.	.	.	.	.
=22	=22	=22	=22	=22	=22	=22	=22	=22	=22	=22
8GG/	3	16B/LL	4r	.	8.B\	Do-	2ryy	2ryy	2ryy	2ryy
.	.	16d/	.	.	.	.	.	.	.	.
8r	.	16B/	.	.	.	.	.	.	.	.
.	.	16d/JJ	.	.	16A\	-mi-	.	.	.	.
8G\	.	8B/	32r	.	8G\	-ne	.	.	.	.
.	.	.	32dd\LLL	.	.	.	.	.	.	.
.	.	.	32ee\	.	.	.	.	.	.	.
.	.	.	32ff#\JJJ	.	.	.	.	.	.	.
8r	.	8r	32gg\LLL	.	8r	.	.	.	.	.
.	.	.	32aa\	.	.	.	.	.	.	.
.	.	.	32bb\	.	.	.	.	.	.	.
.	.	.	32ccc\JJJ	.	.	.	.	.	.	.
=23	=23	=23	=23	=23	=23	=23	=23	=23	=23	=23
!	!	!	!LO:LB:g=original	!	!	!	!	!	!	!
!LO:LB:g=original	!	!LO:LB:g=original	!	!	!	!	!	!	!	!
8G\	5 3	16b/LL	8.ddd\L	.	2r	.	2ryy	2ryy	2ryy	2ryy
.	.	16d/	.	.	.	.	.	.	.	.
8r	.	16a/	.	.	.	.	.	.	.	.
.	.	16d/JJ	16ccc\Jk	.	.	.	.	.	.	.
!LO:TX:t=P:problem=specyficzny zapis bc (?)	!	!	!	!	!	!	!	!	!	!
8GG/	3 8	16g/LL	8bb\L	.	.	.	.	.	.	.
.	.	16d/	.	.	.	.	.	.	.	.
8r	.	16g/	8bb\J	.	.	.	.	.	.	.
.	.	16d/JJ	.	.	.	.	.	.	.	.
=24	=24	=24	=24	=24	=24	=24	=24	=24	=24	=24
8D\	7 5	16a/LL	8.ccc\L	.	2r	.	2ryy	2ryy	2ryy	2ryy
.	.	16d/	.	.	.	.	.	.	.	.
8r	.	16g/	.	.	.	.	.	.	.	.
.	.	16d/JJ	16bb\Jk	.	.	.	.	.	.	.
16DD/LL	5 3	16f#/LL	8aa\	.	.	.	.	.	.	.
16D/	.	16d/	.	.	.	.	.	.	.	.
16C#X/	.	16c#X/	8r	.	.	.	.	.	.	.
16D/JJ	.	16d/JJ	.	.	.	.	.	.	.	.
=25	=25	=25	=25	=25	=25	=25	=25	=25	=25	=25
*	*	*	*	*	*	*ij	*	*	*	*
8DD/	7 5	16A/LL	2r	.	8.c\	par-	2ryy	2ryy	2ryy	2ryy
.	.	16d/	.	.	.	.	.	.	.	.
8r	.	16cn/	.	.	.	.	.	.	.	.
.	.	16d/JJ	.	.	16B\	-ce	.	.	.	.
8D\	5 3	16c/LL	.	.	8A\	no-	.	.	.	.
.	.	16d/	.	.	.	.	.	.	.	.
8r	.	16c/	.	.	8A\	-bis	.	.	.	.
.	.	16d/JJ	.	.	.	.	.	.	.	.
=26	=26	=26	=26	=26	=26	=26	=26	=26	=26	=26
8GG/	3	16B/LL	4r	.	8.B\	Do-	2ryy	2ryy	2ryy	2ryy
.	.	16d/	.	.	.	.	.	.	.	.
8r	.	16B/	.	.	.	.	.	.	.	.
.	.	16d/JJ	.	.	16A\	-mi-	.	.	.	.
8G\	.	8B/	32r	.	8G\	-ne	.	.	.	.
*	*	*	*	*	*	*Xij	*	*	*	*
.	.	.	32dd\LLL	.	.	.	.	.	.	.
.	.	.	32ee\	.	.	.	.	.	.	.
.	.	.	32ff#\JJJ	.	.	.	.	.	.	.
8r	.	8r	32gg\LLL	.	8r	.	.	.	.	.
.	.	.	32aa\	.	.	.	.	.	.	.
.	.	.	32bb\	.	.	.	.	.	.	.
.	.	.	32ccc\JJJ	.	.	.	.	.	.	.
=27	=27	=27	=27	=27	=27	=27	=27	=27	=27	=27
!	!	!	!	!	!LO:LB:g=original	!	!	!	!	!
8GG/	5 3	16b/LL	8.ddd\L	.	2r	.	2ryy	2ryy	2ryy	2ryy
.	.	16d/	.	.	.	.	.	.	.	.
8r	.	16a/	.	.	.	.	.	.	.	.
.	.	16d/JJ	16ccc\Jk	.	.	.	.	.	.	.
8G\	3 8	16g/LL	8bb\L	.	.	.	.	.	.	.
.	.	16d/	.	.	.	.	.	.	.	.
8r	.	16g/	8bb\J	.	.	.	.	.	.	.
.	.	16d/JJ	.	.	.	.	.	.	.	.
=28	=28	=28	=28	=28	=28	=28	=28	=28	=28	=28
8D\	7 5	16a/LL	8.ccc\L	.	2r	.	2ryy	2ryy	2ryy	2ryy
.	.	16d/	.	.	.	.	.	.	.	.
8r	.	16g/	.	.	.	.	.	.	.	.
.	.	16d/JJ	16bb\Jk	.	.	.	.	.	.	.
16DD/LL	5 3	16f#/LL	8aa\	.	.	.	.	.	.	.
16D/	.	16d/	.	.	.	.	.	.	.	.
16C#X/	.	16c#X/	8r	.	.	.	.	.	.	.
16D/JJ	.	16d/JJ	.	.	.	.	.	.	.	.
=29	=29	=29	=29	=29	=29	=29	=29	=29	=29	=29
8F#\	5_ 3_	16r	16r	.	16A\LL	par-	2ryy	2ryy	2ryy	2ryy
.	.	16d/LL 16a	16cc\LL	.	16B\	.	.	.	.	.
8r	.	16d/ 16a	16cc\	.	16c\	-ce	.	.	.	.
.	.	16d/JJ 16a	16cc\JJ	.	16d\JJ	.	.	.	.	.
8F#\	X X	16r	16r	.	8e\	no-	.	.	.	.
.	.	16d/LL 16a	16cc\LL	.	.	.	.	.	.	.
8r	.	16d/ 16a	16cc\	.	8e\	-bis	.	.	.	.
.	.	16d/JJ 16a	16cc\JJ	.	.	.	.	.	.	.
=30	=30	=30	=30	=30	=30	=30	=30	=30	=30	=30
!	!	!	!LO:LB:g=original	!	!	!	!	!	!	!
!	!	!LO:LB:g=original	!	!	!	!	!	!	!	!
8G\	3	16r	16r	.	8.d\	par-	2ryy	2ryy	2ryy	2ryy
.	.	16g/LL	16d/LL 16b	.	.	.	.	.	.	.
8r	.	16g/	16d/ 16b	.	.	.	.	.	.	.
.	.	16g/JJ	16d/JJ 16b	.	16d\	-ce	.	.	.	.
*	*	*	*	*	*	*ij	*	*	*	*
8C/	6 3	16r	16r	.	16e\	par-	.	.	.	.
.	.	16e/LL 16a	16e/LL 16a	.	16c\	-ce	.	.	.	.
*	*	*	*	*	*	*Xij	*	*	*	*
8r	.	16e/ 16a	16e/ 16a	.	16A\	no-	.	.	.	.
.	.	16e/JJ 16a	16e/JJ 16a	.	16B\	-bis	.	.	.	.
=31	=31	=31	=31	=31	=31	=31	=31	=31	=31	=31
!LO:LB:g=original	!	!	!	!	!	!	!	!	!	!
8D/L	6 4	16B/LL	8g/L	.	8.G\L	Do-	2ryy	2ryy	2ryy	2ryy
.	.	16d/	.	.	.	.	.	.	.	.
8D/	.	16g/	16b/L	.	.	.	.	.	.	.
.	.	16b/JJ	16dd/JJ	.	16A\Jk	.	.	.	.	.
8DD/	.	16a\LL	16cc\LL	.	8.AT\	.	.	.	.	.
.	.	16b\	16dd\	.	.	.	.	.	.	.
8DD/J	7 3	16cc\	16ee\	.	.	.	.	.	.	.
.	.	16a\JJ	16ff#\JJ	.	32G\LLL	-mi-	.	.	.	.
.	.	.	.	.	32A\JJJ	.	.	.	.	.
=32	=32	=32	=32	=32	=32	=32	=32	=32	=32	=32
8GG/	3	16b\LL	16gg\LL	.	8G\	-ne	2ryy	2ryy	2ryy	2ryy
.	.	16b\	16dd\	.	.	.	.	.	.	.
8r	.	16b\	16dd\	.	8r	.	.	.	.	.
.	.	16g\JJ	16b\JJ	.	.	.	.	.	.	.
!	!	!	!LO:TX:t=P:problem=mixed beam	!	!	!	!	!	!	!
4r	.	16b/LL	16dd\LL	.	4r	.	.	.	.	.
.	.	16g/	16b\	.	.	.	.	.	.	.
.	.	16B/	16d/	.	.	.	.	.	.	.
.	.	16G/JJ	16B/JJ	.	.	.	.	.	.	.
=33	=33	=33	=33	=33	=33	=33	=33	=33	=33	=33
!	!	!	!	!	!LO:TX:t=P:problem=takty 33-44 zapisane powtórką	!	!	!	!	!
8D\	7 5	16A/LL	2r	.	8.c\	par-	2ryy	2ryy	2ryy	2ryy
.	.	16d/	.	.	.	.	.	.	.	.
8r	.	16c/	.	.	.	.	.	.	.	.
.	.	16d/JJ	.	.	16B\	-ce	.	.	.	.
8DD/	5 3	16c/LL	.	.	8A\	no-	.	.	.	.
.	.	16d/	.	.	.	.	.	.	.	.
8r	.	16c/	.	.	8A\	-bis	.	.	.	.
.	.	16d/JJ	.	.	.	.	.	.	.	.
=34	=34	=34	=34	=34	=34	=34	=34	=34	=34	=34
8GG/	3	16B/LL	4r	.	8.B\	Do-	2ryy	2ryy	2ryy	2ryy
.	.	16d/	.	.	.	.	.	.	.	.
8r	.	16B/	.	.	.	.	.	.	.	.
.	.	16d/JJ	.	.	16A\	-mi-	.	.	.	.
8G\	.	8B/	32r	.	8G\	-ne	.	.	.	.
.	.	.	32dd\LLL	.	.	.	.	.	.	.
.	.	.	32ee\	.	.	.	.	.	.	.
.	.	.	32ff#\JJJ	.	.	.	.	.	.	.
8r	.	8r	32gg\LLL	.	8r	.	.	.	.	.
.	.	.	32aa\	.	.	.	.	.	.	.
.	.	.	32bb\	.	.	.	.	.	.	.
.	.	.	32ccc\JJJ	.	.	.	.	.	.	.
=35	=35	=35	=35	=35	=35	=35	=35	=35	=35	=35
8G\	5 3	16b/LL	8.ddd\L	.	2r	.	2ryy	2ryy	2ryy	2ryy
.	.	16d/	.	.	.	.	.	.	.	.
8r	.	16a/	.	.	.	.	.	.	.	.
.	.	16d/JJ	16ccc\Jk	.	.	.	.	.	.	.
8GG/	3 8	16g/LL	8bb\L	.	.	.	.	.	.	.
.	.	16d/	.	.	.	.	.	.	.	.
8r	.	16g/	8bbt\J	.	.	.	.	.	.	.
.	.	16d/JJ	.	.	.	.	.	.	.	.
=36	=36	=36	=36	=36	=36	=36	=36	=36	=36	=36
8D\	7 5	16a/LL	8.ccc\L	.	2r	.	2ryy	2ryy	2ryy	2ryy
.	.	16d/	.	.	.	.	.	.	.	.
8r	.	16g/	.	.	.	.	.	.	.	.
.	.	16d/JJ	16bb\Jk	.	.	.	.	.	.	.
16DD/LL	5 3	16f#/LL	8aa\	.	.	.	.	.	.	.
16D/	.	16d/	.	.	.	.	.	.	.	.
16C#X/	.	16c#X/	8r	.	.	.	.	.	.	.
16D/JJ	.	16d/JJ	.	.	.	.	.	.	.	.
=37	=37	=37	=37	=37	=37	=37	=37	=37	=37	=37
!	!	!	!LO:LB:g=original	!	!	!	!	!	!	!
!	!	!LO:LB:g=original	!	!	!	!	!	!	!	!
*	*	*	*	*	*	*ij	*	*	*	*
8DD/	7 5	16A/LL	2r	.	8.c\	par-	2ryy	2ryy	2ryy	2ryy
.	.	16d/	.	.	.	.	.	.	.	.
8r	.	16cn/	.	.	.	.	.	.	.	.
.	.	16d/JJ	.	.	16B\	-ce	.	.	.	.
8D\	5 3	16c/LL	.	.	8A\	no-	.	.	.	.
.	.	16d/	.	.	.	.	.	.	.	.
8r	.	16c/	.	.	8A\	-bis	.	.	.	.
.	.	16d/JJ	.	.	.	.	.	.	.	.
=38	=38	=38	=38	=38	=38	=38	=38	=38	=38	=38
8GG/	3	16B/LL	4r	.	8.B\	Do-	2ryy	2ryy	2ryy	2ryy
.	.	16d/	.	.	.	.	.	.	.	.
8r	.	16B/	.	.	.	.	.	.	.	.
.	.	16d/JJ	.	.	16A\	-mi-	.	.	.	.
8G\	.	8B/	32r	.	8G\	-ne	.	.	.	.
*	*	*	*	*	*	*Xij	*	*	*	*
.	.	.	32dd\LLL	.	.	.	.	.	.	.
.	.	.	32ee\	.	.	.	.	.	.	.
.	.	.	32ff#\JJJ	.	.	.	.	.	.	.
8r	.	8r	32gg\LLL	.	8r	.	.	.	.	.
.	.	.	32aa\	.	.	.	.	.	.	.
.	.	.	32bb\	.	.	.	.	.	.	.
.	.	.	32ccc\JJJ	.	.	.	.	.	.	.
=39	=39	=39	=39	=39	=39	=39	=39	=39	=39	=39
!LO:LB:g=original	!	!	!	!	!	!	!	!	!	!
8GG/	5 3	16b/LL	8.ddd\L	.	2r	.	2ryy	2ryy	2ryy	2ryy
.	.	16d/	.	.	.	.	.	.	.	.
8r	.	16a/	.	.	.	.	.	.	.	.
.	.	16d/JJ	16ccc\Jk	.	.	.	.	.	.	.
8G\	3 8	16g/LL	8bb\L	.	.	.	.	.	.	.
.	.	16d/	.	.	.	.	.	.	.	.
8r	.	16g/	8bbt\J	.	.	.	.	.	.	.
.	.	16d/JJ	.	.	.	.	.	.	.	.
=40	=40	=40	=40	=40	=40	=40	=40	=40	=40	=40
8D\	7 5	16a/LL	8.ccc\L	.	2r	.	2ryy	2ryy	2ryy	2ryy
.	.	16d/	.	.	.	.	.	.	.	.
8r	.	16g/	.	.	.	.	.	.	.	.
.	.	16d/JJ	16bb\Jk	.	.	.	.	.	.	.
16DD/LL	5 3	16f#/LL	8aa\	.	.	.	.	.	.	.
16D/	.	16d/	.	.	.	.	.	.	.	.
16C#X/	.	16c#X/	8r	.	.	.	.	.	.	.
16D/JJ	.	16d/JJ	.	.	.	.	.	.	.	.
=41	=41	=41	=41	=41	=41	=41	=41	=41	=41	=41
8F#\	5_ 3_	16r	16r	.	16A\LL	par-	2ryy	2ryy	2ryy	2ryy
.	.	16d/LL 16a	16cc\LL	.	16B\	.	.	.	.	.
8r	.	16d/ 16a	16cc\	.	16c\	-ce	.	.	.	.
.	.	16d/JJ 16a	16cc\JJ	.	16d\JJ	.	.	.	.	.
8F#\	X X	16r	16r	.	8e\	no-	.	.	.	.
.	.	16d/LL 16a	16cc\LL	.	.	.	.	.	.	.
8r	.	16d/ 16a	16cc\	.	8e\	-bis	.	.	.	.
.	.	16d/JJ 16a	16cc\JJ	.	.	.	.	.	.	.
=42	=42	=42	=42	=42	=42	=42	=42	=42	=42	=42
8G\	3	16r	16r	.	8.d\	par-	2ryy	2ryy	2ryy	2ryy
.	.	16g/LL	16d/LL 16b	.	.	.	.	.	.	.
8r	.	16g/	16d/ 16b	.	.	.	.	.	.	.
.	.	16g/JJ	16d/JJ 16b	.	16d\	-ce	.	.	.	.
*	*	*	*	*	*	*ij	*	*	*	*
8C/	6 3	16r	16r	.	16e\	par-	.	.	.	.
.	.	16e/LL 16a	16e/LL 16a	.	16c\	-ce	.	.	.	.
*	*	*	*	*	*	*Xij	*	*	*	*
8r	.	16e/ 16a	16e/ 16a	.	16A\	no-	.	.	.	.
.	.	16e/JJ 16a	16e/JJ 16a	.	16B\	-bis	.	.	.	.
=43	=43	=43	=43	=43	=43	=43	=43	=43	=43	=43
!LO:TX:t=P:problem=mixed beam	!	!	!	!	!	!	!	!	!	!
8D\L	6 4	16B/LL	8g/L	.	8.G\L	Do-	2ryy	2ryy	2ryy	2ryy
.	.	16d/	.	.	.	.	.	.	.	.
8D\	.	16g/	16b/L	.	.	.	.	.	.	.
.	.	16b/JJ	16dd/JJ	.	16A\Jk	.	.	.	.	.
!	!	!LO:LB:g=original	!	!	!	!	!	!	!	!
8DD/	.	16a\LL	16cc\LL	.	8.AT\	.	.	.	.	.
.	.	16b\	16dd\	.	.	.	.	.	.	.
8DD/J	7 3	16cc\	16ee\	.	.	.	.	.	.	.
.	.	16a\JJ	16ff#\JJ	.	32G\LLL	-mi-	.	.	.	.
.	.	.	.	.	32A\JJJ	.	.	.	.	.
=44	=44	=44	=44	=44	=44	=44	=44	=44	=44	=44
!	!	!	!LO:LB:g=original	!	!	!	!	!	!	!
!	!	!	!LO:TX:t=P:problem=mixed beam	!	!	!	!	!	!	!
8GG/	3	8d/ 8b	16g/LL	.	8G\	-ne	2ryy	2ryy	2ryy	2ryy
.	.	.	16gg\	.	.	.	.	.	.	.
8r	.	8r	16gg\	.	8r	.	.	.	.	.
.	.	.	16gg\JJ	.	.	.	.	.	.	.
4r	.	4r	16gg\LL	.	4r	.	.	.	.	.
.	.	.	16ff#\	.	.	.	.	.	.	.
.	.	.	16gg\	.	.	.	.	.	.	.
.	.	.	16ee\JJ	.	.	.	.	.	.	.
=45	=45	=45	=45	=45	=45	=45	=45	=45	=45	=45
8r	.	16f#/LL	16dd\LL	.	2r	.	2ryy	2ryy	2ryy	2ryy
.	.	16a/	16cc\JJ	.	.	.	.	.	.	.
8A\L	3	16d/	8.a\L	.	.	.	.	.	.	.
.	.	16e/JJ	.	.	.	.	.	.	.	.
8F#\	.	16f#/LL	.	.	.	.	.	.	.	.
.	.	16g/	16b\L	.	.	.	.	.	.	.
8D\J	.	16a/	16cc\	.	.	.	.	.	.	.
.	.	16f#/JJ	16a\JJ	.	.	.	.	.	.	.
=46	=46	=46	=46	=46	=46	=46	=46	=46	=46	=46
!	!	!	!LO:TX:t=P:problem=mixed beam	!	!	!	!	!	!	!
8G\	3	8d/ 8b	16g/LL	.	2r	.	2ryy	2ryy	2ryy	2ryy
.	.	.	16gg\	.	.	.	.	.	.	.
8r	.	8r	16gg\	.	.	.	.	.	.	.
.	.	.	16gg\JJ	.	.	.	.	.	.	.
4r	.	4r	32gg\LLL	.	.	.	.	.	.	.
.	.	.	32aa\	.	.	.	.	.	.	.
.	.	.	32bb\	.	.	.	.	.	.	.
.	.	.	32aa\JJJ	.	.	.	.	.	.	.
.	.	.	32gg\LLL	.	.	.	.	.	.	.
.	.	.	32ff#\	.	.	.	.	.	.	.
.	.	.	32ee\	.	.	.	.	.	.	.
.	.	.	32dd\JJJ	.	.	.	.	.	.	.
=47	=47	=47	=47	=47	=47	=47	=47	=47	=47	=47
!LO:LB:g=original	!	!	!	!	!	!	!	!	!	!
8r	.	16f#/LL	32dd\LLL	.	2r	.	2ryy	2ryy	2ryy	2ryy
.	.	.	32cc\	.	.	.	.	.	.	.
.	.	16a/	32b\	.	.	.	.	.	.	.
.	.	.	32cc\JJJ	.	.	.	.	.	.	.
8A\L	3	16d/	8a/L	.	.	.	.	.	.	.
.	.	16e/JJ	.	.	.	.	.	.	.	.
8F#\	.	16f#/LL	32a/LL	.	.	.	.	.	.	.
.	.	.	32b/	.	.	.	.	.	.	.
.	.	16g/	32cc/	.	.	.	.	.	.	.
.	.	.	32b/JJJ	.	.	.	.	.	.	.
8D\J	.	16a/	32dd\LLL	.	.	.	.	.	.	.
.	.	.	32cc\	.	.	.	.	.	.	.
.	.	16f#/JJ	32b\	.	.	.	.	.	.	.
.	.	.	32a\JJJ	.	.	.	.	.	.	.
=48	=48	=48	=48	=48	=48	=48	=48	=48	=48	=48
8G\	3	8G/ 8g	32g/LLL	.	2r	.	2ryy	2ryy	2ryy	2ryy
.	.	.	32d/	.	.	.	.	.	.	.
.	.	.	32e/	.	.	.	.	.	.	.
.	.	.	32f#/JJJ	.	.	.	.	.	.	.
8r	.	8r	32g/LLL	.	.	.	.	.	.	.
.	.	.	32a/	.	.	.	.	.	.	.
.	.	.	32b/	.	.	.	.	.	.	.
.	.	.	32cc/JJJ	.	.	.	.	.	.	.
4r	.	4r	32dd/LLL	.	.	.	.	.	.	.
.	.	.	32g/	.	.	.	.	.	.	.
.	.	.	32a/	.	.	.	.	.	.	.
.	.	.	32b/JJJ	.	.	.	.	.	.	.
.	.	.	32cc\LLL	.	.	.	.	.	.	.
.	.	.	32dd\	.	.	.	.	.	.	.
.	.	.	32ee\	.	.	.	.	.	.	.
.	.	.	32ff#\JJJ	.	.	.	.	.	.	.
=49	=49	=49	=49	=49	=49	=49	=49	=49	=49	=49
!	!	!	!LO:LB:g=original	!	!	!	!	!	!	!
8G\L	3	16B/LL	16gg\LL	.	2r	.	2ryy	2ryy	2ryy	2ryy
.	.	16d/	16bb\JJ	.	.	.	.	.	.	.
8G\	.	16B/	8.ddd\L	.	.	.	.	.	.	.
.	.	16d/JJ	.	.	.	.	.	.	.	.
8D\	7 3	16c/LL	.	.	.	.	.	.	.	.
.	.	16d/	16dd\L	.	.	.	.	.	.	.
8D\J	.	16c/	16ee\	.	.	.	.	.	.	.
.	.	16d/JJ	16ff#\JJ	.	.	.	.	.	.	.
=50	=50	=50	=50	=50	=50	=50	=50	=50	=50	=50
!LO:TX:t=P:problem=mixed beam	!	!	!	!	!	!	!	!	!	!
8G\L	.	8B/L	8gg/L	.	2r	.	2ryy	2ryy	2ryy	2ryy
8GG/	.	8G/ 8d 8b	8d/ 8b 8gg	.	.	.	.	.	.	.
8GG/J	.	8G/J 8d 8b	8d/J 8b 8gg	.	.	.	.	.	.	.
8r	.	8r	8r	.	.	.	.	.	.	.
=51	=51	=51	=51	=51	=51	=51	=51	=51	=51	=51
!	!	!	!	!	!LO:LB:g=original	!	!	!	!	!
8G\	5_ 3_	16r	16r	.	8B\L	A-	2ryy	2ryy	2ryy	2ryy
.	.	16b\LL	16dd\LL	.	.	.	.	.	.	.
.	.	.	.	.	8qqc/	.	.	.	.	.
8r	.	16b\	16dd\	.	32B\LL	.	.	.	.	.
.	.	.	.	.	32A\	.	.	.	.	.
.	.	16g\JJ	16b\JJ	.	32B\	.	.	.	.	.
.	.	.	.	.	32c\JJJ	.	.	.	.	.
!	!	!LO:LB:g=original	!	!	!	!	!	!	!	!
8G\	X X	16r	16r	.	16e\LL	.	.	.	.	.
.	.	16b\LL	16dd\LL	.	16d\JJ	.	.	.	.	.
8r	.	16b\	16dd\	.	16c\LL	-gnus	.	.	.	.
.	.	16g\JJ	16b\JJ	.	16B\JJ	.	.	.	.	.
=52	=52	=52	=52	=52	=52	=52	=52	=52	=52	=52
8F#\	6_ 3_	16r	16r	.	32B\LLL	De-	2ryy	2ryy	2ryy	2ryy
.	.	.	.	.	32c\	.	.	.	.	.
.	.	16a/LL	16dd\LL	.	32G#X\	.	.	.	.	.
.	.	.	.	.	32A\JJJ	.	.	.	.	.
8r	.	16a/	16dd\	.	8A\	-i	.	.	.	.
.	.	16f#/JJ	16a\JJ	.	.	.	.	.	.	.
8F#\	X X	16r	16r	.	8r	.	.	.	.	.
.	.	16a/LL	16dd\LL	.	.	.	.	.	.	.
8r	.	16a/	16dd\	.	8d\	qui	.	.	.	.
.	.	16f#/JJ	16a\JJ	.	.	.	.	.	.	.
=53	=53	=53	=53	=53	=53	=53	=53	=53	=53	=53
8E\	#6\ 3	16r	16r	.	16d\LL	tol-	2ryy	2ryy	2ryy	2ryy
.	.	16g/LL	16cc#X\LL	.	16c#X\JJ	.	.	.	.	.
8r	.	16a/	16cc#\	.	16B\	-lis	.	.	.	.
.	.	16g/JJ	16cc#\JJ	.	16A\	pec-	.	.	.	.
8AA/	.	16r	16r	.	16E\KL	-ca-	.	.	.	.
.	.	16g/LL	16cc#\LL	.	8A\	.	.	.	.	.
8r	.	16a/	16cc#\	.	.	.	.	.	.	.
.	.	16g/JJ	16cc#\JJ	.	16G\Jk	-ta	.	.	.	.
=54	=54	=54	=54	=54	=54	=54	=54	=54	=54	=54
8D\	.	16r	16r	.	16E\LL	mun-	2ryy	2ryy	2ryy	2ryy
.	.	16f#/LL	16dd\LL	.	16F#\JJ	.	.	.	.	.
8r	.	16f#/	16a\	.	8F#\	-di	.	.	.	.
.	.	16d/JJ	16f#\JJ	.	.	.	.	.	.	.
8F#\	6 3	16r	16r	.	8r	.	.	.	.	.
.	.	16f#/LL	16dd\LL	.	.	.	.	.	.	.
8r	.	16f#/	16a\	.	8A\	qui	.	.	.	.
.	.	16d/JJ	16f#\JJ	.	.	.	.	.	.	.
=55	=55	=55	=55	=55	=55	=55	=55	=55	=55	=55
!LO:LB:g=original	!	!	!	!	!LO:LB:g=original	!	!	!	!	!
8G\	3	16r	16r	.	8B\	tol-	2ryy	2ryy	2ryy	2ryy
.	.	16g/LL	16b\LL	.	.	.	.	.	.	.
8r	6 3	16g/	16b\	.	16B\	-lis	.	.	.	.
.	.	16g/JJ	16b\JJ	.	16B\	pec-	.	.	.	.
!	!	!	!LO:LB:g=original	!	!	!	!	!	!	!
8G\	.	16r	16r	.	8.e\	-ca-	.	.	.	.
.	.	16g/LL	16ee\LL	.	.	.	.	.	.	.
16r	.	16g/	16ee\	.	.	.	.	.	.	.
16G#X\	5 3	16f#/JJ	16dd\JJ	.	16d\	-ta	.	.	.	.
=56	=56	=56	=56	=56	=56	=56	=56	=56	=56	=56
!LO:TX:t=P:problem=mixed beam	!	!	!	!	!	!	!	!	!	!
8A\L	#	8f#/L	8dd\L	.	8d\	mun-	2ryy	2ryy	2ryy	2ryy
8AA/	.	32e/LL	32cc#X\LL	.	8c#X\	-di	.	.	.	.
.	.	32A/	32a\	.	.	.	.	.	.	.
.	.	32c#X/	32cc#\	.	.	.	.	.	.	.
.	.	32e/JJJ	32ee\JJJ	.	.	.	.	.	.	.
8AA/J	.	8a/	8aa\	.	4r	.	.	.	.	.
8r	.	8r	8r	.	.	.	.	.	.	.
=57	=57	=57	=57	=57	=57	=57	=57	=57	=57	=57
4A\	#	16c#X/LL	8r	.	16c#X\LL	ex-	2ryy	2ryy	2ryy	2ryy
.	.	16e/	.	.	16A\JJ	.	.	.	.	.
.	.	16g/	16aa\LL	.	4A\	-au-	.	.	.	.
.	.	16e/JJ	16aa\JJ	.	.	.	.	.	.	.
*	*	*rep	*	*	*	*	*	*	*	*
4G\	6	16c#/LL	8aaT\	.	.	.	.	.	.	.
.	.	16e/	.	.	.	.	.	.	.	.
.	.	16g/	8r	.	16c#\	-di	.	.	.	.
.	.	16e/JJ	.	.	16A\	nos	.	.	.	.
*	*	*Xrep	*	*	*	*	*	*	*	*
=58	=58	=58	=58	=58	=58	=58	=58	=58	=58	=58
!	!	!LO:LB:g=original	!	!	!	!	!	!	!	!
*	*	*	*	*	*	*ij	*	*	*	*
4F#\	6	16A/LL	8r	.	16d\LL	ex-	2ryy	2ryy	2ryy	2ryy
.	.	16d/	.	.	16A\JJ	.	.	.	.	.
.	.	16f#/	16aa\LL	.	4A\	-au-	.	.	.	.
.	.	16d/JJ	16aa\JJ	.	.	.	.	.	.	.
*	*	*rep	*	*	*	*	*	*	*	*
4D\	5	16A/LL	8aaT\	.	.	.	.	.	.	.
.	.	16d/	.	.	.	.	.	.	.	.
.	.	16f#/	8r	.	16d\	-di	.	.	.	.
.	.	16d/JJ	.	.	16A\	nos	.	.	.	.
*	*	*Xrep	*	*	*	*	*	*	*	*
*	*	*	*	*	*	*Xij	*	*	*	*
=59	=59	=59	=59	=59	=59	=59	=59	=59	=59	=59
4E\	4 3	16G/LL	8r	.	4.e\	Do-	2ryy	2ryy	2ryy	2ryy
.	.	16A/	.	.	.	.	.	.	.	.
.	.	16c#X/	16aa\LL	.	.	.	.	.	.	.
.	.	16A/JJ	16aa\JJ	.	.	.	.	.	.	.
*	*	*rep	*	*	*	*	*	*	*	*
4AA/	7 5	16G/LL	8aaT\	.	.	.	.	.	.	.
.	.	16A/	.	.	.	.	.	.	.	.
.	.	16c#/	8r	.	32d\LLL	.	.	.	.	.
.	.	.	.	.	32c\	.	.	.	.	.
.	.	16A/JJ	.	.	32B\	-mi-	.	.	.	.
.	.	.	.	.	32A\JJJ	.	.	.	.	.
*	*	*Xrep	*	*	*	*	*	*	*	*
=60	=60	=60	=60	=60	=60	=60	=60	=60	=60	=60
!	!	!	!	!	!LO:LB:g=original	!	!	!	!	!
8D\	3	8d/	16r	.	8d\	-ne	2ryy	2ryy	2ryy	2ryy
.	.	.	16aa\LL	.	.	.	.	.	.	.
8r	.	8r	16gg#X\	.	8r	.	.	.	.	.
.	.	.	16aa\JJ	.	.	.	.	.	.	.
4r	.	4r	16bb\LL	.	4r	.	.	.	.	.
.	.	.	16aa\	.	.	.	.	.	.	.
.	.	.	16gg#X\	.	.	.	.	.	.	.
.	.	.	16aa\JJ	.	.	.	.	.	.	.
=61	=61	=61	=61	=61	=61	=61	=61	=61	=61	=61
4A\	#	16e/LL	16ccc\LL	.	4A\	ex-	2ryy	2ryy	2ryy	2ryy
.	.	16g/	16aa\JJ	.	.	.	.	.	.	.
.	.	16a/	4aa\	.	.	.	.	.	.	.
.	.	16g/JJ	.	.	.	.	.	.	.	.
*	*	*rep	*	*	*	*	*	*	*	*
4G\	6	16e/LL	.	.	4A\	-au-	.	.	.	.
.	.	16g/	.	.	.	.	.	.	.	.
.	.	16a/	16ccc\LL	.	.	.	.	.	.	.
.	.	16g/JJ	16aa\JJ	.	.	.	.	.	.	.
*	*	*Xrep	*	*	*	*	*	*	*	*
=62	=62	=62	=62	=62	=62	=62	=62	=62	=62	=62
!	!	!	!LO:LB:g=original	!	!	!	!	!	!	!
4F#\	6	16d/LL	16ddd\LL	.	4A\	-di	2ryy	2ryy	2ryy	2ryy
.	.	16f#/	16aa\JJ	.	.	.	.	.	.	.
.	.	16a/	4aa\	.	.	.	.	.	.	.
.	.	16f#/JJ	.	.	.	.	.	.	.	.
*	*	*rep	*	*	*	*	*	*	*	*
4D\	5	16d/LL	.	.	4A\	nos	.	.	.	.
.	.	16f#/	.	.	.	.	.	.	.	.
.	.	16a/	16ddd\LL	.	.	.	.	.	.	.
.	.	16f#/JJ	16aa\JJ	.	.	.	.	.	.	.
*	*	*Xrep	*	*	*	*	*	*	*	*
=63	=63	=63	=63	=63	=63	=63	=63	=63	=63	=63
4E\	4 3	16e/LL	8.eee\L	.	4.A\	Do-	2ryy	2ryy	2ryy	2ryy
.	.	16g/	.	.	.	.	.	.	.	.
.	.	16a/	.	.	.	.	.	.	.	.
.	.	16g/JJ	16ddd\Jk	.	.	.	.	.	.	.
*	*	*rep	*	*	*	*	*	*	*	*
4AA/	7 5	16e/LL	16ddd\LL	.	.	.	.	.	.	.
.	.	16g/	16ccc\	.	.	.	.	.	.	.
.	.	16a/	16bb\	.	8A\	-mi-	.	.	.	.
.	.	16g/JJ	16aa\JJ	.	.	.	.	.	.	.
*	*	*Xrep	*	*	*	*	*	*	*	*
=64	=64	=64	=64	=64	=64	=64	=64	=64	=64	=64
!LO:LB:g=original	!	!	!	!	!	!	!	!	!	!
8D\	3	16d/LL	16ddd\LL	.	8A\	-ne	2ryy	2ryy	2ryy	2ryy
.	.	16f#/	16aa\	.	.	.	.	.	.	.
8r	.	16a/	16aa\	.	8r	.	.	.	.	.
.	.	16f#/JJ	16aa\JJ	.	.	.	.	.	.	.
*	*	*rep	*	*	*	*	*	*	*	*
4r	.	16d/LL	16bb\LL	.	4r	.	.	.	.	.
.	.	16f#/	16aa\	.	.	.	.	.	.	.
.	.	16a/	16ff#\	.	.	.	.	.	.	.
.	.	16f#/JJ	16dd\JJ	.	.	.	.	.	.	.
*	*	*Xrep	*	*	*	*	*	*	*	*
=65	=65	=65	=65	=65	=65	=65	=65	=65	=65	=65
8.G\L	3	16g/LL	8.b\L	.	8.G\	ex-	2ryy	2ryy	2ryy	2ryy
.	.	16f#/	.	.	.	.	.	.	.	.
.	.	16g/	.	.	.	.	.	.	.	.
16A\Jk	3	16e/JJ	16cc\Jk	.	16A\	-au-	.	.	.	.
8B\L	3	16f#/LL	8dd\L	.	8B\	-di	.	.	.	.
.	.	16d/	.	.	.	.	.	.	.	.
8c\J	3	16g/	8ee\J	.	8c\	nos	.	.	.	.
.	.	16a/JJ	.	.	.	.	.	.	.	.
=66	=66	=66	=66	=66	=66	=66	=66	=66	=66	=66
!	!	!LO:PB:g=original	!	!	!	!	!	!	!	!
8d\L	3	8dd\L	8ff#\L	.	(8d\L	Do-	2ryy	2ryy	2ryy	2ryy
!	!	!	!LO:TUP:a:problem=klamra łukowa	!	!	!	!	!	!	!
8B\	3	8b\	24gg\L	.	8B\	.	.	.	.	.
.	.	.	24aa\	.	.	.	.	.	.	.
.	.	.	24bb\JJ	.	.	.	.	.	.	.
8G\	3	8g\	8dd\L	.	8G\)	.	.	.	.	.
8A\J	3	8a\J	8ee\J	.	8A|>\J	-mi-	.	.	.	.
=67	=67	=67	=67	=67	=67	=67	=67	=67	=67	=67
!	!	!	!LO:TX:t=P:problem=mixed beam	!	!	!	!	!	!	!
!	!	!	!	!	!LO:LB:g=original	!	!	!	!	!
8D/L	.	8d/L	8dd\L	.	8D\	-ne	2ryy	2ryy	2ryy	2ryy
!	!	!LO:TUP:b:problem=klamra łukowa	!LO:TUP:b:problem=klamra łukowa	!	!	!	!	!	!	!
8DD/	.	24d/L	24d/L	.	8r	.	.	.	.	.
.	.	24f#/	24e/	.	.	.	.	.	.	.
.	.	24a/JJ	24f#/JJ	.	.	.	.	.	.	.
8DD/J	.	8d/	8.dd\L	.	4r	.	.	.	.	.
8r	.	8r	.	.	.	.	.	.	.	.
.	.	.	16d/Jk	.	.	.	.	.	.	.
=68	=68	=68	=68	=68	=68	=68	=68	=68	=68	=68
4A\	#	16c#X/LL	8r	.	16c\LL	ex-	2ryy	2ryy	2ryy	2ryy
.	.	16e/	.	.	16A\JJ	.	.	.	.	.
.	.	16g/	16aa\LL	.	4A\	-au-	.	.	.	.
.	.	16e/JJ	16aa\JJ	.	.	.	.	.	.	.
*	*	*rep	*	*	*	*	*	*	*	*
4G\	6	16c#/LL	8aaT\	.	.	.	.	.	.	.
.	.	16e/	.	.	.	.	.	.	.	.
!	!	!	!LO:TX:b:i:t=verte Cito	!	!	!	!	!	!	!
.	.	16g/	8r	.	16c\	-di	.	.	.	.
.	.	16e/JJ	.	.	16A\	nos	.	.	.	.
*	*	*Xrep	*	*	*	*	*	*	*	*
=69	=69	=69	=69	=69	=69	=69	=69	=69	=69	=69
!	!	!	!LO:PB:g=original	!	!	!	!	!	!	!
*	*	*	*	*	*	*ij	*	*	*	*
4F#\	6	16A/LL	8r	.	16d\LL	ex-	2ryy	2ryy	2ryy	2ryy
.	.	16d/	.	.	16A\JJ	.	.	.	.	.
.	.	16f#/	16aa\LL	.	4A\	-au-	.	.	.	.
.	.	16d/JJ	16aa\JJ	.	.	.	.	.	.	.
*	*	*rep	*	*	*	*	*	*	*	*
4D\	5	16A/LL	8aaT\	.	.	.	.	.	.	.
.	.	16d/	.	.	.	.	.	.	.	.
.	.	16f#/	8r	.	16d\	-di	.	.	.	.
.	.	16d/JJ	.	.	16A\	nos	.	.	.	.
*	*	*Xrep	*	*	*	*	*	*	*	*
*	*	*	*	*	*	*Xij	*	*	*	*
=70	=70	=70	=70	=70	=70	=70	=70	=70	=70	=70
4E\	4 3	16G/LL	8r	.	4.e\	Do-	2ryy	2ryy	2ryy	2ryy
.	.	16A/	.	.	.	.	.	.	.	.
.	.	16c#X/	16aa\LL	.	.	.	.	.	.	.
.	.	16A/JJ	16aa\JJ	.	.	.	.	.	.	.
*	*	*rep	*	*	*	*	*	*	*	*
4AA/	7 5	16G/LL	8aaT\	.	.	.	.	.	.	.
.	.	16A/	.	.	.	.	.	.	.	.
.	.	16c#/	8r	.	32d\LLL	.	.	.	.	.
.	.	.	.	.	32c\	.	.	.	.	.
.	.	16A/JJ	.	.	32B\	-mi-	.	.	.	.
.	.	.	.	.	32A\JJJ	.	.	.	.	.
*	*	*Xrep	*	*	*	*	*	*	*	*
=71	=71	=71	=71	=71	=71	=71	=71	=71	=71	=71
8D\	3	8d/	16r	.	8d\	-ne	2ryy	2ryy	2ryy	2ryy
.	.	.	16aa\LL	.	.	.	.	.	.	.
8r	.	8r	16gg#X\	.	8r	.	.	.	.	.
.	.	.	16aa\JJ	.	.	.	.	.	.	.
4r	.	4r	16bb\LL	.	4r	.	.	.	.	.
.	.	.	16aa\	.	.	.	.	.	.	.
.	.	.	16gg#X\	.	.	.	.	.	.	.
.	.	.	16aa\JJ	.	.	.	.	.	.	.
=72	=72	=72	=72	=72	=72	=72	=72	=72	=72	=72
4A\	#	16e/LL	16ccc\LL	.	4A\	ex-	2ryy	2ryy	2ryy	2ryy
.	.	16g/	16aa\JJ	.	.	.	.	.	.	.
.	.	16a/	4aa\	.	.	.	.	.	.	.
.	.	16g/JJ	.	.	.	.	.	.	.	.
*	*	*rep	*	*	*	*	*	*	*	*
4G\	6	16e/LL	.	.	4A\	-au-	.	.	.	.
.	.	16g/	.	.	.	.	.	.	.	.
.	.	16a/	16ccc\LL	.	.	.	.	.	.	.
.	.	16g/JJ	16aa\JJ	.	.	.	.	.	.	.
*	*	*Xrep	*	*	*	*	*	*	*	*
=73	=73	=73	=73	=73	=73	=73	=73	=73	=73	=73
!LO:LB:g=original	!	!	!	!	!LO:LB:g=original	!	!	!	!	!
4F#\	6	16d/LL	16ddd\LL	.	4A\	-di	2ryy	2ryy	2ryy	2ryy
.	.	16f#/	16aa\JJ	.	.	.	.	.	.	.
.	.	16a/	4aa\	.	.	.	.	.	.	.
.	.	16f#/JJ	.	.	.	.	.	.	.	.
*	*	*rep	*	*	*	*	*	*	*	*
4D\	5	16d/LL	.	.	4A\	nos	.	.	.	.
.	.	16f#/	.	.	.	.	.	.	.	.
.	.	16a/	16ddd\LL	.	.	.	.	.	.	.
.	.	16f#/JJ	16aa\JJ	.	.	.	.	.	.	.
*	*	*Xrep	*	*	*	*	*	*	*	*
=74	=74	=74	=74	=74	=74	=74	=74	=74	=74	=74
4E\	4 3	16e/LL	8.eee\L	.	4.A\	Do-	2ryy	2ryy	2ryy	2ryy
.	.	16g/	.	.	.	.	.	.	.	.
.	.	16a/	.	.	.	.	.	.	.	.
.	.	16g/JJ	16ddd\Jk	.	.	.	.	.	.	.
*	*	*rep	*	*	*	*	*	*	*	*
4AA/	7 5	16e/LL	16ddd\LL	.	.	.	.	.	.	.
.	.	16g/	16ccc\	.	.	.	.	.	.	.
.	.	16a/	16bb\	.	8A\	-mi-	.	.	.	.
.	.	16g/JJ	16aa\JJ	.	.	.	.	.	.	.
*	*	*Xrep	*	*	*	*	*	*	*	*
=75	=75	=75	=75	=75	=75	=75	=75	=75	=75	=75
!	!	!	!LO:LB:g=original	!	!	!	!	!	!	!
!	!	!LO:LB:g=original	!	!	!	!	!	!	!	!
8D\	3	16d/LL	16ddd\LL	.	8A\	-ne	2ryy	2ryy	2ryy	2ryy
.	.	16f#/	16aa\	.	.	.	.	.	.	.
8r	.	16a/	16aa\	.	8r	.	.	.	.	.
.	.	16f#/JJ	16aa\JJ	.	.	.	.	.	.	.
*	*	*rep	*	*	*	*	*	*	*	*
4r	.	16d/LL	16bb\LL	.	4r	.	.	.	.	.
.	.	16f#/	16aa\	.	.	.	.	.	.	.
.	.	16a/	16ff#\	.	.	.	.	.	.	.
.	.	16f#/JJ	16dd\JJ	.	.	.	.	.	.	.
*	*	*Xrep	*	*	*	*	*	*	*	*
=76	=76	=76	=76	=76	=76	=76	=76	=76	=76	=76
8.G\L	3	16g/LL	8.b\L	.	8.G\	ex-	2ryy	2ryy	2ryy	2ryy
.	.	16f#/	.	.	.	.	.	.	.	.
.	.	16g/	.	.	.	.	.	.	.	.
16A\Jk	3	16e/JJ	16cc\Jk	.	16A\	-au-	.	.	.	.
8B\L	3	16f#/LL	8dd\L	.	8B\	-di	.	.	.	.
.	.	16d/	.	.	.	.	.	.	.	.
8c\J	3	16g/	8ee\J	.	8c\	nos	.	.	.	.
.	.	16a/JJ	.	.	.	.	.	.	.	.
=77	=77	=77	=77	=77	=77	=77	=77	=77	=77	=77
8d\L	3	8dd\L	8ff#\L	.	(8d\L	Do-	2ryy	2ryy	2ryy	2ryy
!	!	!	!LO:TUP:a:problem=klamra łukowa	!	!	!	!	!	!	!
8B\	3	8b\	24gg\L	.	8B\	.	.	.	.	.
.	.	.	24aa\	.	.	.	.	.	.	.
.	.	.	24bb\JJ	.	.	.	.	.	.	.
8G\	3	8g\	8dd\L	.	8G\)	.	.	.	.	.
8A\J	3	8a\J	8ee\J	.	8A|>\J	-mi-	.	.	.	.
=78	=78	=78	=78	=78	=78	=78	=78	=78	=78	=78
8D/L	.	8f#/L	16dd\LL	.	8D\	-ne	2ryy	2ryy	2ryy	2ryy
!	!	!	!	!LO:DY:b:t=for.	!	!	!	!	!	!
.	.	.	16dd\	f	.	.	.	.	.	.
8DD/J	.	8d/ 8a 8ff#	16ff#\	.	8r	.	.	.	.	.
.	.	.	16aa\JJ	.	.	.	.	.	.	.
16D/LL	.	8d/J 8a 8ff#	8ddd\	.	4r	.	.	.	.	.
16Cn/	3	.	.	.	.	.	.	.	.	.
16BB/	6	8r	8r	.	.	.	.	.	.	.
16AA/JJ	6	.	.	.	.	.	.	.	.	.
=79	=79	=79	=79	=79	=79	=79	=79	=79	=79	=79
8G\	3	2r	16d/LL	.	16G\LL	a-	2ryy	2ryy	2ryy	2ryy
.	.	.	16B/J	.	16D\J	.	.	.	.	.
8r	.	.	8.d/J	.	8.B\J	.	.	.	.	.
4D\	7_ 5_	.	.	.	.	.	.	.	.	.
!	!	!	!	!	!LO:LB:g=original	!	!	!	!	!
.	.	.	16e/LL	.	16cn\LL	.	.	.	.	.
.	.	.	16c/	.	16A\	.	.	.	.	.
.	.	.	16A/JJ	.	16F#'\JJ	-gnus	.	.	.	.
=80	=80	=80	=80	=80	=80	=80	=80	=80	=80	=80
8DD/L	.	2r	8c/L	.	8A\L	De-	2ryy	2ryy	2ryy	2ryy
.	.	.	.	.	16qqB/	.	.	.	.	.
8D/J	X X	.	32c/LL	.	32A\LL	.	.	.	.	.
.	.	.	32B/	.	32G\	.	.	.	.	.
.	.	.	32c/	.	32A\	.	.	.	.	.
.	.	.	32d/JJJ	.	32B\JJJ	.	.	.	.	.
4GG/	3	.	16B/LL	.	8G\	-i	.	.	.	.
.	.	.	16B/	.	.	.	.	.	.	.
.	.	.	16d/	.	16r	.	.	.	.	.
.	.	.	16g/JJ	.	16B\	qui	.	.	.	.
=81	=81	=81	=81	=81	=81	=81	=81	=81	=81	=81
4BB/	6 3	2r	16b\LL	.	16d\LL	tol-	2ryy	2ryy	2ryy	2ryy
.	.	.	16g\J	.	16B\JJ	.	.	.	.	.
.	.	.	8.b\J	.	8.d\	-lis	.	.	.	.
4C/	6 3	.	.	.	.	.	.	.	.	.
.	.	.	16cc\LL	.	16e\	pec-	.	.	.	.
.	.	.	16a\	.	16c\	-ca-	.	.	.	.
.	.	.	16e\JJ	.	16A\	-ta	.	.	.	.
=82	=82	=82	=82	=82	=82	=82	=82	=82	=82	=82
!LO:LB:g=original	!	!	!LO:LB:g=original	!	!	!	!	!	!	!
4D/	6 4	2r	16g/LL	.	8.G\L	mu-	2ryy	2ryy	2ryy	2ryy
.	.	.	16d/	.	.	.	.	.	.	.
.	.	.	16B/	.	.	.	.	.	.	.
.	.	.	16G/JJ	.	32A\LL	.	.	.	.	.
.	.	.	.	.	32B\JJJ	.	.	.	.	.
!	!	!	!	!	!LO:N:vis=4	!	!	!	!	!
.	.	.	.	.	8qqB/	.	.	.	.	.
16D/LL	5 3	.	8d/	.	8A\	-di	.	.	.	.
16AA/	.	.	.	.	.	.	.	.	.	.
16FF#/	.	.	8r	.	8r	.	.	.	.	.
16DD/JJ	.	.	.	.	.	.	.	.	.	.
=83	=83	=83	=83	=83	=83	=83	=83	=83	=83	=83
8D\	7 5	16A/LL	2r	.	8.c\	mi-	2ryy	2ryy	2ryy	2ryy
.	.	16d/	.	.	.	.	.	.	.	.
8r	.	16c/	.	.	.	.	.	.	.	.
.	.	16d/JJ	.	.	16B\	-se-	.	.	.	.
8DD/	5 3	16c/LL	.	.	8A\	-re-	.	.	.	.
.	.	16d/	.	.	.	.	.	.	.	.
8r	.	16c/	.	.	8A\	-re	.	.	.	.
.	.	16d/JJ	.	.	.	.	.	.	.	.
=84	=84	=84	=84	=84	=84	=84	=84	=84	=84	=84
!	!	!	!	!	!LO:LB:g=original	!	!	!	!	!
8GG/	3	16B/LL	4r	.	8.B\L	no-	2ryy	2ryy	2ryy	2ryy
.	.	16d/	.	.	.	.	.	.	.	.
8r	.	16B/	.	.	.	.	.	.	.	.
.	.	16d/JJ	.	.	16A\Jk	.	.	.	.	.
8G\	.	8B/	32r	.	8G\	-bis	.	.	.	.
.	.	.	32dd\LLL	.	.	.	.	.	.	.
.	.	.	32ee\	.	.	.	.	.	.	.
.	.	.	32ff#\JJJ	.	.	.	.	.	.	.
8r	.	8r	32gg\LLL	.	8r	.	.	.	.	.
.	.	.	32aa\	.	.	.	.	.	.	.
.	.	.	32bb\	.	.	.	.	.	.	.
.	.	.	32ccc\JJJ	.	.	.	.	.	.	.
=85	=85	=85	=85	=85	=85	=85	=85	=85	=85	=85
8G\	5 3	16b/LL	8.ddd\L	.	2r	.	2ryy	2ryy	2ryy	2ryy
.	.	16d/	.	.	.	.	.	.	.	.
8r	.	16a/	.	.	.	.	.	.	.	.
.	.	16d/JJ	16ccc\Jk	.	.	.	.	.	.	.
8GG/	3 8	16g/LL	8bb\L	.	.	.	.	.	.	.
.	.	16d/	.	.	.	.	.	.	.	.
8r	.	16g/	8bb\J	.	.	.	.	.	.	.
.	.	16d/JJ	.	.	.	.	.	.	.	.
=86	=86	=86	=86	=86	=86	=86	=86	=86	=86	=86
!	!	!LO:LB:g=original	!	!	!	!	!	!	!	!
8D\	7 5	16a/LL	8.ccc\L	.	2r	.	2ryy	2ryy	2ryy	2ryy
.	.	16d/	.	.	.	.	.	.	.	.
8r	.	16g/	.	.	.	.	.	.	.	.
.	.	16d/JJ	16bb\Jk	.	.	.	.	.	.	.
16DD/LL	5 3	16f#/LL	8aa\	.	.	.	.	.	.	.
16D/	.	16d/	.	.	.	.	.	.	.	.
16C#X/	.	16c#X/	8r	.	.	.	.	.	.	.
16D/JJ	.	16d/JJ	.	.	.	.	.	.	.	.
=87	=87	=87	=87	=87	=87	=87	=87	=87	=87	=87
*	*	*	*	*	*	*ij	*	*	*	*
8DD/	7 5	16A/LL	2r	.	8.c\	mi-	2ryy	2ryy	2ryy	2ryy
.	.	16d/	.	.	.	.	.	.	.	.
8r	.	16cn/	.	.	.	.	.	.	.	.
.	.	16d/JJ	.	.	16B\	-se-	.	.	.	.
8D\	5 3	16c/LL	.	.	8A\	-re-	.	.	.	.
.	.	16d/	.	.	.	.	.	.	.	.
8r	.	16c/	.	.	8A\	-re	.	.	.	.
.	.	16d/JJ	.	.	.	.	.	.	.	.
=88	=88	=88	=88	=88	=88	=88	=88	=88	=88	=88
8GG/	3	16B/LL	4r	.	8.B\L	no-	2ryy	2ryy	2ryy	2ryy
.	.	16d/	.	.	.	.	.	.	.	.
8r	.	16B/	.	.	.	.	.	.	.	.
.	.	16d/JJ	.	.	16A\Jk	.	.	.	.	.
8G\	.	8B/	32r	.	8G\	-bis	.	.	.	.
*	*	*	*	*	*	*Xij	*	*	*	*
.	.	.	32dd\LLL	.	.	.	.	.	.	.
.	.	.	32ee\	.	.	.	.	.	.	.
.	.	.	32ff#\JJJ	.	.	.	.	.	.	.
8r	.	8r	32gg\LLL	.	8r	.	.	.	.	.
.	.	.	32aa\	.	.	.	.	.	.	.
.	.	.	32bb\	.	.	.	.	.	.	.
.	.	.	32ccc\JJJ	.	.	.	.	.	.	.
=89	=89	=89	=89	=89	=89	=89	=89	=89	=89	=89
8GG/	8 3	16b/LL	8.ddd\L	.	2r	.	2ryy	2ryy	2ryy	2ryy
.	.	16d/	.	.	.	.	.	.	.	.
8r	.	16a/	.	.	.	.	.	.	.	.
.	.	16d/JJ	16ccc\Jk	.	.	.	.	.	.	.
8G\	3 8	16g/LL	8bb\L	.	.	.	.	.	.	.
.	.	16d/	.	.	.	.	.	.	.	.
8r	.	16g/	8bbt\J	.	.	.	.	.	.	.
.	.	16d/JJ	.	.	.	.	.	.	.	.
=90	=90	=90	=90	=90	=90	=90	=90	=90	=90	=90
!LO:LB:g=original	!	!	!LO:LB:g=original	!	!	!	!	!	!	!
8D\	7 5	16a/LL	8.ccc\L	.	2r	.	2ryy	2ryy	2ryy	2ryy
.	.	16d/	.	.	.	.	.	.	.	.
8r	.	16g/	.	.	.	.	.	.	.	.
.	.	16d/JJ	16bb\Jk	.	.	.	.	.	.	.
16DD/LL	6 3	16f#/LL	8aa\	.	.	.	.	.	.	.
16D/	.	16d/	.	.	.	.	.	.	.	.
16C#X/	.	16c#X/	8r	.	.	.	.	.	.	.
16D/JJ	.	16d/JJ	.	.	.	.	.	.	.	.
=91	=91	=91	=91	=91	=91	=91	=91	=91	=91	=91
8F#\	5_ 3_	16r	16r	.	16A\LL	mi-	2ryy	2ryy	2ryy	2ryy
.	.	16d/LL 16a	16cc\LL	.	16B\	.	.	.	.	.
8r	.	16d/ 16a	16cc\	.	16c\	-se-	.	.	.	.
.	.	16d/JJ 16a	16cc\JJ	.	16d\JJ	.	.	.	.	.
8F#\	X X	16r	16r	.	8e\	-re-	.	.	.	.
.	.	16d/LL 16a	16cc\LL	.	.	.	.	.	.	.
8r	.	16d/ 16a	16cc\	.	8e\	-re	.	.	.	.
.	.	16d/JJ 16a	16cc\JJ	.	.	.	.	.	.	.
=92	=92	=92	=92	=92	=92	=92	=92	=92	=92	=92
!	!	!LO:LB:g=original	!	!	!	!	!	!	!	!
*	*	*	*	*	*	*ij	*	*	*	*
8G\	3	16r	16r	.	8.d\	mi-	2ryy	2ryy	2ryy	2ryy
.	.	16g/LL	16d/LL 16b	.	.	.	.	.	.	.
8r	.	16g/	16d/ 16b	.	.	.	.	.	.	.
.	.	16g/JJ	16d/JJ 16b	.	16d\	-se-	.	.	.	.
!	!	!	!	!	!LO:LB:g=original	!	!	!	!	!
8C/	6 3	16r	16r	.	16d\LL	-re-	.	.	.	.
.	.	16e/LL 16a	16e/LL 16a	.	16e\JJ	.	.	.	.	.
8r	.	16e/ 16a	16e/ 16a	.	16c\LL	-re	.	.	.	.
*	*	*	*	*	*	*Xij	*	*	*	*
.	.	16e/JJ 16a	16e/JJ 16a	.	32A\L	.	.	.	.	.
.	.	.	.	.	32B\JJJ	.	.	.	.	.
=93	=93	=93	=93	=93	=93	=93	=93	=93	=93	=93
8D/L	6 4	16B/LL	8g\L	.	8.G\L	no-	2ryy	2ryy	2ryy	2ryy
.	.	16d/	.	.	.	.	.	.	.	.
8D/	.	16g/	16b\L	.	.	.	.	.	.	.
.	.	16b/JJ	16dd\JJ	.	16A\Jk	.	.	.	.	.
8DD/	.	16a\LL	16cc\LL	.	8.AT\L	.	.	.	.	.
.	.	16b\	16dd\	.	.	.	.	.	.	.
8DD/J	7 3	16cc\	16ee\	.	.	.	.	.	.	.
.	.	16a\JJ	16ff#\JJ	.	32G\LL	.	.	.	.	.
.	.	.	.	.	32A\JJJ	.	.	.	.	.
=94	=94	=94	=94	=94	=94	=94	=94	=94	=94	=94
8GG/	3	16b\LL	16gg\LL	.	8G\	-bis	2ryy	2ryy	2ryy	2ryy
.	.	16b\	16dd\	.	.	.	.	.	.	.
8r	.	16b\	16dd\	.	8r	.	.	.	.	.
.	.	16g\JJ	16b\JJ	.	.	.	.	.	.	.
!	!	!	!LO:TX:t=P:problem=mixed beam	!	!	!	!	!	!	!
4r	.	16b/LL	16dd\LL	.	4r	.	.	.	.	.
.	.	16g/	16b\	.	.	.	.	.	.	.
.	.	16d/	16d/	.	.	.	.	.	.	.
.	.	16B/JJ	16B/JJ	.	.	.	.	.	.	.
=95	=95	=95	=95	=95	=95	=95	=95	=95	=95	=95
!	!	!	!	!	!LO:TX:t=P:problem=takty 95-106 zapisane powtórką	!	!	!	!	!
8D\	7 5	16A/LL	2r	.	8.c\	mi-	2ryy	2ryy	2ryy	2ryy
.	.	16d/	.	.	.	.	.	.	.	.
8r	.	16c/	.	.	.	.	.	.	.	.
.	.	16d/JJ	.	.	16B\	-se-	.	.	.	.
8DD/	5 3	16c/LL	.	.	8A\	-re-	.	.	.	.
.	.	16d/	.	.	.	.	.	.	.	.
8r	.	16c/	.	.	8A\	-re	.	.	.	.
.	.	16d/JJ	.	.	.	.	.	.	.	.
=96	=96	=96	=96	=96	=96	=96	=96	=96	=96	=96
8GG/	3	16B/LL	4r	.	8.B\L	no-	2ryy	2ryy	2ryy	2ryy
.	.	16d/	.	.	.	.	.	.	.	.
8r	.	16B/	.	.	.	.	.	.	.	.
.	.	16d/JJ	.	.	16A\Jk	.	.	.	.	.
8G\	.	8B/	32r	.	8G\	-bis	.	.	.	.
.	.	.	32dd\LLL	.	.	.	.	.	.	.
.	.	.	32ee\	.	.	.	.	.	.	.
.	.	.	32ff#\JJJ	.	.	.	.	.	.	.
8r	.	8r	32gg\LLL	.	8r	.	.	.	.	.
.	.	.	32aa\	.	.	.	.	.	.	.
.	.	.	32bb\	.	.	.	.	.	.	.
.	.	.	32ccc\JJJ	.	.	.	.	.	.	.
=97	=97	=97	=97	=97	=97	=97	=97	=97	=97	=97
!	!	!	!LO:LB:g=original	!	!	!	!	!	!	!
8G\	5 3	16b/LL	8.ddd\L	.	2r	.	2ryy	2ryy	2ryy	2ryy
.	.	16d/	.	.	.	.	.	.	.	.
8r	.	16a/	.	.	.	.	.	.	.	.
.	.	16d/JJ	16ccc\Jk	.	.	.	.	.	.	.
8GG/	3 8	16g/LL	8bb\L	.	.	.	.	.	.	.
.	.	16d/	.	.	.	.	.	.	.	.
8r	.	16g/	8bbt\J	.	.	.	.	.	.	.
.	.	16d/JJ	.	.	.	.	.	.	.	.
=98	=98	=98	=98	=98	=98	=98	=98	=98	=98	=98
!LO:LB:g=original	!	!LO:LB:g=original	!	!	!	!	!	!	!	!
8D\	7 5	16a/LL	8.ccc\L	.	2r	.	2ryy	2ryy	2ryy	2ryy
.	.	16d/	.	.	.	.	.	.	.	.
8r	.	16g/	.	.	.	.	.	.	.	.
.	.	16d/JJ	16bb\Jk	.	.	.	.	.	.	.
16DD/LL	5 3	16f#/LL	8aa\	.	.	.	.	.	.	.
16D/	.	16d/	.	.	.	.	.	.	.	.
16C#X/	.	16c#X/	8r	.	.	.	.	.	.	.
16D/JJ	.	16d/JJ	.	.	.	.	.	.	.	.
=99	=99	=99	=99	=99	=99	=99	=99	=99	=99	=99
*	*	*	*	*	*	*ij	*	*	*	*
8DD/	7 5	16A/LL	2r	.	8.c\	mi-	2ryy	2ryy	2ryy	2ryy
.	.	16d/	.	.	.	.	.	.	.	.
8r	.	16cn/	.	.	.	.	.	.	.	.
.	.	16d/JJ	.	.	16B\	-se-	.	.	.	.
8D\	5 3	16c/LL	.	.	8A\	-re-	.	.	.	.
.	.	16d/	.	.	.	.	.	.	.	.
8r	.	16c/	.	.	8A\	-re	.	.	.	.
.	.	16d/JJ	.	.	.	.	.	.	.	.
=100	=100	=100	=100	=100	=100	=100	=100	=100	=100	=100
8GG/	3	16B/LL	4r	.	8.B\L	no-	2ryy	2ryy	2ryy	2ryy
.	.	16d/	.	.	.	.	.	.	.	.
8r	.	16B/	.	.	.	.	.	.	.	.
.	.	16d/JJ	.	.	16A\Jk	.	.	.	.	.
8G\	.	8B/	32r	.	8G\	-bis	.	.	.	.
*	*	*	*	*	*	*Xij	*	*	*	*
.	.	.	32dd\LLL	.	.	.	.	.	.	.
.	.	.	32ee\	.	.	.	.	.	.	.
.	.	.	32ff#\JJJ	.	.	.	.	.	.	.
8r	.	8r	32gg\LLL	.	8r	.	.	.	.	.
.	.	.	32aa\	.	.	.	.	.	.	.
.	.	.	32bb\	.	.	.	.	.	.	.
.	.	.	32ccc\JJJ	.	.	.	.	.	.	.
=101	=101	=101	=101	=101	=101	=101	=101	=101	=101	=101
8GG/	5 3	16b/LL	8.ddd\L	.	2r	.	2ryy	2ryy	2ryy	2ryy
.	.	16d/	.	.	.	.	.	.	.	.
8r	.	16a/	.	.	.	.	.	.	.	.
.	.	16d/JJ	16ccc\Jk	.	.	.	.	.	.	.
8G\	3 8	16g/LL	8bb\L	.	.	.	.	.	.	.
.	.	16d/	.	.	.	.	.	.	.	.
8r	.	16g/	8bbt\J	.	.	.	.	.	.	.
.	.	16d/JJ	.	.	.	.	.	.	.	.
=102	=102	=102	=102	=102	=102	=102	=102	=102	=102	=102
8D\	7 5	16a/LL	8.ccc\L	.	2r	.	2ryy	2ryy	2ryy	2ryy
.	.	16d/	.	.	.	.	.	.	.	.
8r	.	16g/	.	.	.	.	.	.	.	.
.	.	16d/JJ	16bb\Jk	.	.	.	.	.	.	.
16DD/LL	5 3	16f#/LL	8aa\	.	.	.	.	.	.	.
16D/	.	16d/	.	.	.	.	.	.	.	.
16C#X/	.	16c#X/	8r	.	.	.	.	.	.	.
16D/JJ	.	16d/JJ	.	.	.	.	.	.	.	.
=103	=103	=103	=103	=103	=103	=103	=103	=103	=103	=103
8F#\	5_ 3_	16r	16r	.	16A\LL	mi-	2ryy	2ryy	2ryy	2ryy
.	.	16d/LL 16a	16cc\LL	.	16B\	.	.	.	.	.
8r	.	16d/ 16a	16cc\	.	16c\	-se-	.	.	.	.
.	.	16d/JJ 16a	16cc\JJ	.	16d\JJ	.	.	.	.	.
8F#\	X X	16r	16r	.	8e\	-re-	.	.	.	.
.	.	16d/LL 16a	16cc\LL	.	.	.	.	.	.	.
8r	.	16d/ 16a	16cc\	.	8e\	-re	.	.	.	.
.	.	16d/JJ 16a	16cc\JJ	.	.	.	.	.	.	.
=104	=104	=104	=104	=104	=104	=104	=104	=104	=104	=104
!	!	!	!LO:LB:g=original	!	!	!	!	!	!	!
*	*	*	*	*	*	*ij	*	*	*	*
8G\	3	16r	16r	.	8.d\	mi-	2ryy	2ryy	2ryy	2ryy
.	.	16g/LL	16d/LL 16b	.	.	.	.	.	.	.
8r	.	16g/	16d/ 16b	.	.	.	.	.	.	.
.	.	16g/JJ	16d/JJ 16b	.	16d\	-se-	.	.	.	.
!	!	!	!	!	!LO:LB:g=original	!	!	!	!	!
8C/	6 3	16r	16r	.	16d\LL	-re-	.	.	.	.
.	.	16e/LL 16a	16e/LL 16a	.	16e\JJ	.	.	.	.	.
8r	.	16e/ 16a	16e/ 16a	.	16c\LL	-re	.	.	.	.
*	*	*	*	*	*	*Xij	*	*	*	*
.	.	16e/JJ 16a	16e/JJ 16a	.	32A\L	.	.	.	.	.
.	.	.	.	.	32B\JJJ	.	.	.	.	.
=105	=105	=105	=105	=105	=105	=105	=105	=105	=105	=105
8D/L	6 4	16B/LL	8g\L	.	8.G\L	no-	2ryy	2ryy	2ryy	2ryy
.	.	16d/	.	.	.	.	.	.	.	.
8D/	.	16g/	16b\L	.	.	.	.	.	.	.
.	.	16b/JJ	16dd\JJ	.	16A\Jk	.	.	.	.	.
8DD/	.	16a\LL	16cc\LL	.	8.AT\L	.	.	.	.	.
.	.	16b\	16dd\	.	.	.	.	.	.	.
8DD/J	7 3	16cc\	16ee\	.	.	.	.	.	.	.
!	!	!LO:TX:t=P:problem=skreślony fragment	!	!	!	!	!	!	!	!
.	.	16a\JJ	16ff#\JJ	.	32G\LL	.	.	.	.	.
.	.	.	.	.	32A\JJJ	.	.	.	.	.
=106	=106	=106	=106	=106	=106	=106	=106	=106	=106	=106
!LO:LB:g=original	!	!	!	!	!	!	!	!	!	!
8G\	3	16r	16gg\LL	.	8G\	-bis	2ryy	2ryy	2ryy	2ryy
.	.	16d/LL 16b	16dd\JJ	.	.	.	.	.	.	.
8r	.	16d/ 16b	8.bb\L	.	8r	.	.	.	.	.
.	.	16d/JJ 16b	.	.	.	.	.	.	.	.
8D\	.	16r	.	.	4r	.	.	.	.	.
.	.	16d/LL 16cc	16aa\L	.	.	.	.	.	.	.
8r	.	16d/ 16cc	16ff#\	.	.	.	.	.	.	.
.	.	16d/JJ 16cc	16dd\JJ	.	.	.	.	.	.	.
=107	=107	=107	=107	=107	=107	=107	=107	=107	=107	=107
8F#\	5 3	16r	8.dd\L	.	2r	.	2ryy	2ryy	2ryy	2ryy
.	.	16d/LL 16a	.	.	.	.	.	.	.	.
8r	.	16d/ 16a	.	.	.	.	.	.	.	.
.	.	16d/JJ 16a	16ee\Jk	.	.	.	.	.	.	.
8G\	3	16r	32ff#\LLL	.	.	.	.	.	.	.
.	.	.	32gg\	.	.	.	.	.	.	.
.	.	16d/LL 16b	32aa\	.	.	.	.	.	.	.
.	.	.	32bb\JJJ	.	.	.	.	.	.	.
8r	.	16d/ 16b	32gg\LLL	.	.	.	.	.	.	.
.	.	.	32aa\	.	.	.	.	.	.	.
.	.	16d/JJ 16b	32bb\	.	.	.	.	.	.	.
.	.	.	32ccc\JJJ	.	.	.	.	.	.	.
=108	=108	=108	=108	=108	=108	=108	=108	=108	=108	=108
8B\	6 3	16r	16ddd\LL	.	2r	.	2ryy	2ryy	2ryy	2ryy
.	.	16d/LL	16bb\JJ	.	.	.	.	.	.	.
8r	.	16g/	8.ddd\L	.	.	.	.	.	.	.
.	.	16d/JJ	.	.	.	.	.	.	.	.
8c\	6 3	16r	.	.	.	.	.	.	.	.
.	.	16e/LL	16eee\L	.	.	.	.	.	.	.
8r	.	16a/	16ccc\	.	.	.	.	.	.	.
.	.	16e/JJ	16aa\JJ	.	.	.	.	.	.	.
=109	=109	=109	=109	=109	=109	=109	=109	=109	=109	=109
!	!	!LO:LB:g=original	!	!	!	!	!	!	!	!
8d\	6 4	16r	8.gg\L	.	2r	.	2ryy	2ryy	2ryy	2ryy
.	.	16B/LL 16g	.	.	.	.	.	.	.	.
8r	.	16B/ 16g	.	.	.	.	.	.	.	.
.	.	16B/JJ 16g	16bb\Jk	.	.	.	.	.	.	.
8D\	5 3	16f#/LL	8aa\	.	.	.	.	.	.	.
.	.	16d/	.	.	.	.	.	.	.	.
8r	.	16c#X/	8r	.	.	.	.	.	.	.
.	.	16d/JJ	.	.	.	.	.	.	.	.
=110	=110	=110	=110	=110	=110	=110	=110	=110	=110	=110
!	!	!	!LO:LB:g=original	!	!	!	!	!	!	!
8FF#/	5 3	16r	16.aa\LL	.	2r	.	2ryy	2ryy	2ryy	2ryy
.	.	16d/LL 16cc	.	.	.	.	.	.	.	.
.	.	.	32bb\K	.	.	.	.	.	.	.
8r	.	16d/ 16cc	16ccc\	.	.	.	.	.	.	.
.	.	16d/JJ 16cc	16ddd\JJ	.	.	.	.	.	.	.
8F#\	.	16r	8eee\L	.	.	.	.	.	.	.
.	.	16a/LL 16cc	.	.	.	.	.	.	.	.
8r	.	16a/ 16cc	8eee\J	.	.	.	.	.	.	.
.	.	16a/JJ 16cc	.	.	.	.	.	.	.	.
=111	=111	=111	=111	=111	=111	=111	=111	=111	=111	=111
8G\	53	16r	16eee\LL	.	2r	.	2ryy	2ryy	2ryy	2ryy
.	.	16d/LL 16b	16ddd\J	.	.	.	.	.	.	.
8r	.	16d/ 16b	8.ddd\J	.	.	.	.	.	.	.
.	.	16d/JJ 16b	.	.	.	.	.	.	.	.
8C/	6 3	16r	.	.	.	.	.	.	.	.
.	.	16e/LL 16a	16eee\LL	.	.	.	.	.	.	.
8r	.	16e/ 16a	16ccc\	.	.	.	.	.	.	.
.	.	16e/JJ 16a	16aa\JJ	.	.	.	.	.	.	.
=112	=112	=112	=112	=112	=112	=112	=112	=112	=112	=112
8D\	6 4	16g/LL	8gg\L	.	2r	.	2ryy	2ryy	2ryy	2ryy
.	.	16d/	.	.	.	.	.	.	.	.
8r	.	16B/	8gg\J	.	.	.	.	.	.	.
.	.	16d/JJ	.	.	.	.	.	.	.	.
8DD/	7 5	16c/LL	16ff#\LL	.	.	.	.	.	.	.
.	.	16d/	16aa\	.	.	.	.	.	.	.
8r	.	16f#/	16ddd\	.	.	.	.	.	.	.
.	.	16a/JJ	16ccc\JJ	.	.	.	.	.	.	.
=113	=113	=113	=113	=113	=113	=113	=113	=113	=113	=113
8D\	7 5	16a/LL	8.ccc\L	.	2r	.	2ryy	2ryy	2ryy	2ryy
.	.	16d/	.	.	.	.	.	.	.	.
8r	.	16e/	.	.	.	.	.	.	.	.
.	.	16f#/JJ	16ddd\Jk	.	.	.	.	.	.	.
16G\LL	3	16g/LL	8bb\	.	.	.	.	.	.	.
16B\	3	16d/	.	.	.	.	.	.	.	.
16A\	3	16c/	8r	.	.	.	.	.	.	.
16G\JJ	3	16B/JJ	.	.	.	.	.	.	.	.
=114	=114	=114	=114	=114	=114	=114	=114	=114	=114	=114
!LO:LB:g=original	!	!	!	!	!	!	!	!	!	!
8F#\	6_ 5_ 3_	16r	16.aa\LL	.	2r	.	2ryy	2ryy	2ryy	2ryy
.	.	16d/LL 16a	.	.	.	.	.	.	.	.
.	.	.	32bb\K	.	.	.	.	.	.	.
8r	.	16d/ 16a	16ccc\	.	.	.	.	.	.	.
.	.	16d/JJ 16a	16ddd\JJ	.	.	.	.	.	.	.
!	!	!LO:LB:g=original	!	!	!	!	!	!	!	!
8F#\	X X X	16r	8eee\L	.	.	.	.	.	.	.
.	.	16a/LL 16cc	.	.	.	.	.	.	.	.
8r	.	16a/ 16cc	8eee\J	.	.	.	.	.	.	.
.	.	16a/JJ 16cc	.	.	.	.	.	.	.	.
=115	=115	=115	=115	=115	=115	=115	=115	=115	=115	=115
8G\	3	16r	8eee\L	.	2r	.	2ryy	2ryy	2ryy	2ryy
.	.	16d/LL 16b	.	.	.	.	.	.	.	.
8r	.	16d/ 16b	8ddd\J	.	.	.	.	.	.	.
.	.	16d/JJ 16b	.	.	.	.	.	.	.	.
4r	.	8d/ 8b	16.ddd\LL	.	.	.	.	.	.	.
.	.	.	32eee\K	.	.	.	.	.	.	.
.	.	8r	16fff#\	.	.	.	.	.	.	.
.	.	.	16ggg\JJ	.	.	.	.	.	.	.
=116	=116	=116	=116	=116	=116	=116	=116	=116	=116	=116
!	!	!	!LO:LB:g=original	!	!	!	!	!	!	!
8G\L	3	16B/LL	8.gg\L	.	2r	.	2ryy	2ryy	2ryy	2ryy
.	.	16d/	.	.	.	.	.	.	.	.
8G\	.	16B/	.	.	.	.	.	.	.	.
.	.	16d/JJ	16aa\Jk	.	.	.	.	.	.	.
8D\	7 3	16c/LL	4aaT\	.	.	.	.	.	.	.
.	.	16d/	.	.	.	.	.	.	.	.
8D\J	.	16c/	.	.	.	.	.	.	.	.
.	.	16d/JJ	.	.	.	.	.	.	.	.
=117	=117	=117	=117	=117	=117	=117	=117	=117	=117	=117
!LO:TX:t=P:problem=mixed beam	!	!	!	!	!LO:TX:a:i:t=Da Capo Christe\naudinos	!	!LO:TX:a:i:t=Christe audinos Da Capo	!LO:TX:a:i:t=Christe audinos Da Capo	!LO:TX:a:i:t=Christe audinos Da Capo	!LO:TX:a:i:t=Christe Exaudinos Da Capo
8G\L	.	8d/L	8gg\L	.	2r	.	2ryy	2ryy	2ryy	2ryy
8D\	.	16b/L	16dd\L	.	.	.	.	.	.	.
.	.	16b/JJ	16dd\JJ	.	.	.	.	.	.	.
8GG/J	.	8g/	8b\	.	.	.	.	.	.	.
!LO:TX:i:t=Chryste audinos Da Capo	!	!LO:TX:b:i:t=Christe audinos Da Capo	!LO:TX:i:t=Christe audinos Da Capo	!	!	!	!	!	!	!
8r	.	8r	8r	.	.	.	.	.	.	.
==	==	==	==	==	==	==	==	==	==	==
*-	*-	*-	*-	*-	*-	*-	*-	*-	*-	*-
!!!system-decoration: [(g1)][(g2)][(g3)]s8
!!!RDF**kern: > = above
!!!RDF**kern: < = below
!!!RDF**kern: | = vertical stroke
!!!ENC: Filip Voros
!!!END: 2021-11-20
!!!ENC: Kamil Watkowski
!!!END: 2021-11-29
